www/assets/icons/sailing.svg

<svg xmlns="http://www.w3.org/2000/svg" width="24" height="24" viewBox="0 0 24 24" fill='currentColor'><path d="M11 13.5V2L3 13.5zm10 0C21 6.5 14.5 1 12.5 1c0 0 1 3 1 6.5s-1 6-1 6zm1 1.5H2a6.23 6.23 0 0 0 2.33 3.73c.65-.27 1.22-.72 1.67-1.23.73.84 1.8 1.5 3 1.5s2.27-.66 3-1.5c.73.84 1.8 1.5 3 1.5s2.26-.66 3-1.5c.45.51 1.02.96 1.67 1.23 1.17-.89 2.02-2.2 2.33-3.73m0 8v-2h-1c-1.04 0-2.08-.35-3-1-1.83 1.3-4.17 1.3-6 0-1.83 1.3-4.17 1.3-6 0-.91.65-1.96 1-3 1H2v2h1c1.03 0 2.05-.25 3-.75 1.89 1 4.11 1 6 0 1.89 1 4.11 1 6 0 .95.5 1.97.75 3 .75z"/></svg>

<svg width="24" height="24" viewBox="0 0 24 24" xmlns="http://www.w3.org/2000/svg" fill='currentColor'><path d="M11 13.5V2L3 13.5H11ZM21 13.5C21 6.5 14.5 1 12.5 1C12.5 1 13.5 4 13.5 7.5C13.5 11 12.5 13.5 12.5 13.5H21ZM22 15H2C2.31 16.53 3.16 17.84 4.33 18.73C4.98 18.46 5.55 18.01 6 17.5C6.73 18.34 7.8 19 9 19C10.2 19 11.27 18.34 12 17.5C12.73 18.34 13.8 19 15 19C16.2 19 17.26 18.34 18 17.5C18.45 18.01 19.02 18.46 19.67 18.73C20.84 17.84 21.69 16.53 22 15ZM22 23V21H21C19.96 21 18.92 20.65 18 20C16.17 21.3 13.83 21.3 12 20C10.17 21.3 7.83 21.3 6 20C5.09 20.65 4.04 21 3 21H2V23H3C4.03 23 5.05 22.75 6 22.25C7.89 23.25 10.11 23.25 12 22.25C13.89 23.25 16.11 23.25 18 22.25C18.95 22.75 19.97 23 21 23H22Z"/></svg>
